www/assets/icons/sports.svg

<svg width="24" height="24" viewBox="0 0 24 24" xmlns="http://www.w3.org/2000/svg" fill='currentColor'><path d="M11.23 5.99609C9.57 5.99609 8.01 6.65609 6.87 7.72609C6.54 6.72609 5.61 5.99609 4.5 5.99609C3.12 5.99609 2 7.11609 2 8.49609C2 9.87609 3.12 10.9961 4.5 10.9961C4.71 10.9961 4.91 10.9661 5.11 10.9161C5.06 11.1661 5.02 11.4261 5.01 11.6961C4.83 15.3761 7.96 18.3761 11.69 17.9661C14.24 17.6861 16.37 15.7061 16.88 13.1961C17.03 12.4861 17.03 11.7961 16.94 11.1361C16.85 10.5361 17.32 10.0061 17.93 10.0061H22V5.99609H11.23ZM4.5 8.99609C4.22 8.99609 4 8.77609 4 8.49609C4 8.21609 4.22 7.99609 4.5 7.99609C4.78 7.99609 5 8.21609 5 8.49609C5 8.77609 4.78 8.99609 4.5 8.99609ZM11 14.9961C9.34 14.9961 8 13.6561 8 11.9961C8 10.3361 9.34 8.99609 11 8.99609C12.66 8.99609 14 10.3361 14 11.9961C14 13.6561 12.66 14.9961 11 14.9961Z"/><path d="M11 13.9961C12.1046 13.9961 13 13.1007 13 11.9961C13 10.8915 12.1046 9.99609 11 9.99609C9.89543 9.99609 9 10.8915 9 11.9961C9 13.1007 9.89543 13.9961 11 13.9961Z"/></svg>

<svg xmlns="http://www.w3.org/2000/svg" width="24" height="24" viewBox="0 0 24 24" fill='currentColor'><path d="M11.23 5.996c-1.66 0-3.22.66-4.36 1.73-.33-1-1.26-1.73-2.37-1.73a2.5 2.5 0 0 0 0 5c.21 0 .41-.03.61-.08-.05.25-.09.51-.1.78a6.006 6.006 0 0 0 6.68 6.27c2.55-.28 4.68-2.26 5.19-4.77.15-.71.15-1.4.06-2.06-.09-.6.38-1.13.99-1.13H22v-4.01zm-6.73 3c-.28 0-.5-.22-.5-.5s.22-.5.5-.5.5.22.5.5-.22.5-.5.5m6.5 6c-1.66 0-3-1.34-3-3s1.34-3 3-3 3 1.34 3 3-1.34 3-3 3"/><path d="M11 13.996a2 2 0 1 0 0-4 2 2 0 0 0 0 4"/></svg>
